www/assets/icons/wifi_channel.svg

<svg xmlns="http://www.w3.org/2000/svg" width="24" height="24" viewBox="0 0 24 24" fill='currentColor'><path d="M16 3c-2.51 0-3.77 5.61-4.4 10.57C10.79 10.66 9.61 8 8 8 4.43 8 3 21 3 21h2.01c.61-5.27 2-9.82 2.99-10.87.98 1.05 2.38 5.61 2.99 10.87H13c.5-2.53 2-6 3-6s2.5 3.53 3 6h2s-.5-18-5-18m0 10c-.99 0-1.82.62-2.5 1.5.57-4.77 1.54-8.62 2.5-9.44.97.81 1.91 4.67 2.49 9.43C17.81 13.62 16.98 13 16 13"/></svg>

<svg width="24" height="24" viewBox="0 0 24 24" xmlns="http://www.w3.org/2000/svg" fill='currentColor'><path d="M16 3C13.49 3 12.23 8.61 11.6 13.57C10.79 10.66 9.61 8 8 8C4.43 8 3 21 3 21H5.01C5.62 15.73 7.01 11.18 8 10.13C8.98 11.18 10.38 15.74 10.99 21H13C13.5 18.47 15 15 16 15C17 15 18.5 18.53 19 21H21C21 21 20.5 3 16 3ZM16 13C15.01 13 14.18 13.62 13.5 14.5C14.07 9.73 15.04 5.88 16 5.06C16.97 5.87 17.91 9.73 18.49 14.49C17.81 13.62 16.98 13 16 13Z"/></svg>
